source/img/icon-phone.svg

<svg version="1.1" id="Layer_1" xmlns="http://www.w3.org/2000/svg" xmlns:xlink="http://www.w3.org/1999/xlink" x="0px" y="0px" width="19.697px" height="19.696px" viewBox="0 0 19.697 19.696" enable-background="new 0 0 19.697 19.696" xml:space="preserve">
  <path fill="#FFFFFF" d="M9.848,0C6.34,0,2.823,0.628,1.546,1.878c-1.058,1.04-1.412,2.874-1.53,4.035c0,0-0.016,0.115-0.016,0.165 c0,0.454,0.369,0.82,0.819,0.82c0.054,0,2.028-0.161,3.218-0.259c0.029-0.004,0.058-0.008,0.086-0.017 C4.566,6.61,4.924,6.25,4.924,5.803l0.003-1.617c0-0.5,0.407-0.902,0.907-0.902h8.027c0.499,0,0.907,0.402,0.907,0.902l0.003,1.617 c0,0.447,0.356,0.808,0.802,0.82c0.027,0.009,0.056,0.013,0.085,0.017c1.19,0.098,3.164,0.259,3.217,0.259 c0.451,0,0.822-0.366,0.822-0.82c0-0.05-0.018-0.165-0.018-0.165c-0.118-1.161-0.472-2.995-1.53-4.035 C16.873,0.628,13.356,0,9.848,0z M9.848,10.67c-0.908,0-1.643,0.733-1.643,1.64c0,0.907,0.734,1.641,1.643,1.641 c0.906,0,1.641-0.733,1.641-1.641C11.488,11.404,10.754,10.67,9.848,10.67z M8.616,6.975V5.951c0-0.567-0.46-1.026-1.025-1.026 c-0.566,0-1.024,0.459-1.024,1.026v1.024l-5.537,5.913c-0.382,0.376-0.619,0.894-0.619,1.47v1.646c0,0.907,0.734,1.643,1.641,1.643 h0.411v1.023c0,0.568,0.46,1.026,1.026,1.026c0.565,0,1.024-0.458,1.024-1.026v-1.023h10.669v1.023c0,0.568,0.46,1.026,1.025,1.026 c0.567,0,1.026-0.458,1.026-1.026v-1.023h0.411c0.905,0,1.64-0.735,1.64-1.643v-1.646c0-0.576-0.236-1.094-0.618-1.47L13.13,6.975 V5.951c0-0.567-0.459-1.026-1.024-1.026c-0.567,0-1.027,0.459-1.027,1.026v1.024H8.616z M9.848,9.028 c1.814,0,3.282,1.468,3.282,3.282s-1.468,3.282-3.282,3.282c-1.813,0-3.281-1.468-3.281-3.282S8.034,9.028,9.848,9.028z"/>
</svg>

<svg id="Layer_1" data-name="Layer 1" xmlns="http://www.w3.org/2000/svg" width="19.7" height="19.7" viewBox="0 0 19.7 19.7"><defs><style>.cls-1{fill:#d22856;}</style></defs><title>icon-phone</title><path class="cls-1" d="M9.85,0c-3.51,0-7,.63-8.3,1.88A6.89,6.89,0,0,0,0,5.91S0,6,0,6.08a.82.82,0,0,0,.82.82L4,6.64l.09,0a.82.82,0,0,0,.8-.82V4.19a.9.9,0,0,1,.91-.9h8a.9.9,0,0,1,.91.9V5.8a.82.82,0,0,0,.8.82l.09,0,3.22.26a.82.82,0,0,0,.82-.82,1.63,1.63,0,0,0,0-.17,6.9,6.9,0,0,0-1.53-4C16.87.63,13.36,0,9.85,0Zm0,10.67a1.64,1.64,0,1,0,1.64,1.64A1.64,1.64,0,0,0,9.85,10.67ZM8.62,7V6a1,1,0,1,0-2,0V7L1,12.89a2.06,2.06,0,0,0-.62,1.47V16a1.64,1.64,0,0,0,1.64,1.64h.41v1a1,1,0,1,0,2.05,0v-1H15.18v1a1,1,0,0,0,2.05,0v-1h.41A1.64,1.64,0,0,0,19.28,16V14.36a2.05,2.05,0,0,0-.62-1.47L13.13,7V6a1,1,0,1,0-2.05,0V7ZM9.85,9a3.28,3.28,0,1,1-3.28,3.28A3.28,3.28,0,0,1,9.85,9Z" transform="translate(0)"/></svg>
